logo/morpheus-icon.svg

<?xml version="1.0" encoding="UTF-8"?>
<svg width="256px" height="256px" viewBox="0 0 256 256" version="1.1" xmlns="http://www.w3.org/2000/svg" xmlns:xlink="http://www.w3.org/1999/xlink" preserveAspectRatio="xMidYMid">
    <g>
        <path d="M251.927436,159.692002 C238.034091,215.509402 187.200894,255.221134 127.33077,255.221134 C67.1895601,255.221134 16.7939457,213.158879 3.46995201,157.111127 C19.4913553,157.111127 34.4690339,157.184334 41.4224936,157.184334 C44.7026556,157.184334 45.3396695,157.241237 45.5294595,157.227672 C50.7614749,156.970132 57.321876,155.243289 61.686372,144.630125 L78.3177452,101.124376 L115.253702,190.054562 C118.574551,197.143511 124.118377,196.64138 127.425583,196.64138 L127.737394,196.64138 C134.18933,196.64138 136.995128,194.380483 139.448486,189.704185 L181.169129,101.791182 L195.401319,141.411649 L196.268828,143.329979 C199.277885,149.93099 201.442523,156.451138 208.889341,157.303173 C210.424427,157.4788 228.251164,157.167385 252.28324,157.167385 C252.28324,157.167385 252.28324,157.32153 251.927436,159.692002 Z" fill="#3DB5E6"></path>
        <path d="M256.003414,126.817301 C256.003414,127.481465 256.003414,129.151906 255.989849,129.151906 L255.962718,129.151906 L217.604121,129.151906 L195.225104,66.6377276 C193.23265,61.9885609 190.237072,55.0188169 181.507974,55.0188169 C176.167513,55.0188169 171.342122,59.4293987 168.604083,66.7081384 L128.035544,160.67729 L88.9851024,67.2781545 C85.16273,58.9828208 82.5196687,55.0814954 74.8749239,55.0814954 C69.6835372,55.0814954 65.8747398,56.9938193 61.7270682,66.8207976 L38.5489365,130.080118 L0.0406190218,130.039807 C0.0134882534,129.077407 0,128.115249 0,127.152849 C0,56.8322013 57.0101324,0 127.330761,0 C197.651389,0 256.003414,56.4966822 256.003414,126.817301 Z" fill="#D8292F"></path>
    </g>
</svg>

<svg viewBox="0 0 256 256" xmlns="http://www.w3.org/2000/svg"><path fill="#3DB5E6" d="M251.92 159.69c-13.9 55.81-64.73 95.52-124.6 95.52 -60.15 0-110.54-42.07-123.87-98.12 16.02 0 30.99.07 37.95.07 3.28 0 3.91.05 4.1.04 5.23-.26 11.79-1.99 16.15-12.6l16.63-43.51 36.93 88.93c3.32 7.08 8.86 6.58 12.17 6.58h.31c6.45 0 9.25-2.27 11.71-6.94l41.72-87.92 14.23 39.62 .86 1.91c3 6.6 5.17 13.12 12.62 13.97 1.53.17 19.36-.14 43.39-.14 0 0 0 .15-.36 2.52Z"/><path fill="#D8292F" d="M256 126.81c0 .66 0 2.33-.02 2.33h-.03 -38.36l-22.38-62.52c-2-4.65-4.99-11.62-13.72-11.62 -5.35 0-10.17 4.41-12.91 11.68l-40.57 93.96 -39.06-93.4c-3.83-8.3-6.47-12.2-14.12-12.2 -5.2 0-9.01 1.91-13.15 11.73L38.5 130.02l-38.51-.05c-.03-.97-.05-1.93-.05-2.89C-.06 56.75 56.95-.08 127.27-.08c70.32 0 128.67 56.49 128.67 126.81Z"/></svg>
